X: 150
T:Missa Sine nomine / Credo
N: Derived from Jos1202c-Missa_Sine_nomine-Credo.krn
C: Josquin des Prez
%%abc-version 2.0
%%abcx-abcm2ps-target-version 5.9.1 (29 Sep 2008)
%%abc-creator hum2abc beta
%%abcx-conversion-date 2019/02/12 16:15:45
%%abc-edited-by Jesse Rodin
%%abc-edited-by Jesse Rodin; Victoria Chang 2011/04/06/; JR 2013/02 (text)
%%abcx-initial-encoding-date 2013/03/08/
%%humdrum-veritas 208734575
%%humdrum-veritas-data 1218732035
%%linebreak <none>
%%barnumbers 0
L: 1/4
M: 3/1
Q: 1/2=120
%%staves [1 2 3 4]
V: 1 clef=treble
V: 2 clef=treble-8
V: 3 clef=treble-8
V: 4 clef=bass
K: C
[V:1] z12 | 
[V:2] e4f4e4 | 
[V:3] A4d4c3B | 
[V:4] z12 | 
[V:1] A4_B4A4 | 
[V:2] c2f2e2d3^c^cB | 
[V:3] A2F2G4A4 | 
[V:4] z12 | 
[V:1] F2_B2A2G3^FFE | 
[V:2] d8z4 | 
[V:3] D2G2F2G2A4 | 
[V:4] z12 | 
[V:1] G8z4 | 
[V:2] z2d2d2d2d4 | 
[V:3] G2B2B2B2B4 | 
[V:4] z2G,2G,2G,2G,4 | 
[V:1] z2G2G2G2G4 | 
[V:2] c2e3dd4^c2 | 
[V:3] c4B2G3FGA | 
[V:4] C,4G,3F,E,4 | 
[V:1] F2A3GG4^F2 | 
[V:2] d4d2d2d2d2 | 
[V:3] _B2A2F2G2A4 | 
[V:4] D,4z4D,4 | 
[V:1] G4G2G2G2G2 | 
[V:2] e4d2c2B4 | 
[V:3] c4_B2c2d2e2 | 
[V:4] C,4G,2C,2G,4 | 
[V:1] A4G2F2E4 | 
[V:2] A4z4c4 | 
[V:3] f2F2G2_B3GA2 | 
[V:4] F,4E,2D,2C,4 | 
[V:1] D4z4F4 | 
[V:2] d2f4e2d2f2 | 
[V:3] _B3AF2c2d_B2A | 
[V:4] _B,,2D,4C,2B,,2D,2 | 
[V:1] G2_B4A2G2B2 | 
[V:2] e2d4f2e2d2 | 
[V:3] c2_B3AF2G4 | 
[V:4] C,2G,4D,2E,2G,2 | 
[V:1] A2G4_B2A2G2 | 
[V:2] f2e3dd3^c^cB | 
[V:3] A2c2_B3AF2G2 | 
[V:4] F,2C,2G,3F,D,2E,2 | 
[V:1] _B2A3GG3^FFE | 
[V:2] d4z4z2d2- | 
[V:3] FDd4B2A4 | 
[V:4] D,3E,F,2G,2D,4 | 
[V:1] G4z4z2G2- | 
[V:2] d2d2d2d2d2d2 | 
[V:3] G4B3BB2B2 | 
[V:4] G,3G,G,2G,2G,2G,2 | 
[V:1] G2G2G2G2G2G2 | 
[V:2] d2B2c4d4 | 
[V:3] B2e4dcB4 | 
[V:4] G,4C,4G,3F, | 
[V:1] G2E2F4G4 | 
[V:2] e4z4z4 | 
[V:3] c4d2A2B4 | 
[V:4] E,4D,2F,2E,4 | 
[V:1] A4z4z4 | 
[V:2] e4e2e2d4 | 
[V:3] A2c2c2c2d2A2- | 
[V:4] z2A,2A,2A,2D,3E, | 
[V:1] A4A2A2G4 | 
[V:2] c2f2e2d4^c2 | 
[V:3] ABc2A2d3BG2 | 
[V:4] F,G,A,4F,2E,4 | 
[V:1] F2_B2A2G4^F2 | 
[V:2] d4z4z4 | 
[V:3] A2d3cB2A4 | 
[V:4] D,12 | 
[V:1] G4z4z4 | 
[V:2] d2d2d2d2d4 | 
[V:3] G2B2B2B2B2B2 | 
[V:4] z2G,2G,2G,2G,2G,2 | 
[V:1] G2G2G2G2G4 | 
[V:2] e2d2e2d2e2g2 | 
[V:3] c2B2c2B2c3B | 
[V:4] C,2G,2C,2G,3F,E,2 | 
[V:1] A2G2A2G2A2c2 | 
[V:2] f2e3dd4^c2 | 
[V:3] d2B2A2_B2A2G2 | 
[V:4] D,2E,2F,2G,2F,D,E,2 | 
[V:1] _B2A3GG4^F2 | 
[V:2] d4z4z4 | 
[V:3] FDd4B2A4 | 
[V:4] D,4z4D,4 | 
[V:1] G4z4z4 | 
[V:2] z2d4c2d4 | 
[V:3] G8z2d2- | 
[V:4] G,2G,2E,4D,4 | 
[V:1] z2G4F2G4 | 
[V:2] e4d4z4 | 
[V:3] d2c2d4e4 | 
[V:4] z12 | 
[V:1] A4G4z4 | 
[V:2] z2d2d2d2e2c2 | 
[V:3] d4z2B2c2c2 | 
[V:4] D,4G,2G,2C,2C,2 | 
[V:1] z2G2G2G2A2F2 | 
[V:2] d4z2B2c2d2 | 
[V:3] B2G2d4z2A2 | 
[V:4] G,4G,4F,2D,2 | 
[V:1] G4z2E2F2G2 | 
[V:2] e4g4f2e2- | 
[V:3] cGcdece2dcB2 | 
[V:4] C,4C,4D,2E,2 | 
[V:1] A4c4=B2A2- | 
[V:2] edd4^c2d4 | 
[V:3] A2f4e2d3c | 
[V:4] F,3G,A,4D,3E, | 
[V:1] AGG4^F2G4 | 
[V:2] z4z4d3d | 
[V:3] A2B2A4G2B2- | 
[V:4] F,2G,2D,4G,3G, | 
[V:1] z4z4G3G | 
[V:2] e2e2d4e4 | 
[V:3] B2c2A2A2B4 | 
[V:4] E,2E,2F,4E,4 | 
[V:1] A2A2G4A4 | 
[V:2] z2d2e2g4f2 | 
[V:3] A3Bc2B2d2A2 | 
[V:4] F,4E,2E,2D,2D,2 | 
[V:1] z2G2A2c4B2 | 
[V:2] e2d2f4e4 | 
[V:3] B4A4z2B2 | 
[V:4] G,4F,2A,4G,2 | 
[V:1] A2G2B4A4 | 
[V:2] z2e2d2d2f2e2- | 
[V:3] c4B2G2d2c2 | 
[V:4] F,2E,2G,4D,2A,2- | 
[V:1] z2A2G2G2_B2A2- | 
[V:2] edd4^c2d4 | 
[V:3] A4z2e2f4- | 
[V:4] A,2F,2E,4D,3E, | 
[V:1] AGG4^F2G4 | 
[V:2] c2B2A4GA_Bc | 
[V:3] f2d6_B2G2 | 
[V:4] F,2G,2D,4_E,4 | 
[V:1] F2E2D4CDEF | 
[V:2] d2c4B2c4 | 
[V:3] A2G2A2G2z2A2 | 
[V:4] D,2=E,2F,2G,2A,3G, | 
[V:1] G2F4E2F4 | 
[V:2] z4z4c2c2 | 
[V:3] G2c6A4- | 
[V:4] E,2F,2C,4F,2F,2 | 
[V:1] z4z4F2F2 | 
[V:2] c2c2d2e2f4 | 
[V:3] A4z4A2A2 | 
[V:4] F,2A,2G,2G,2F,4 | 
[V:1] F2F2G2A2_B4 | 
[V:2] z4z4d2dd | 
[V:3] _B2d2c2c2_B4 | 
[V:4] z4z4G,2G,G, | 
[V:1] z4z4G2GG | 
[V:2] d2d2e2f2g4 | 
[V:3] z4z4_B2_B_B | 
[V:4] G,2_B,2A,2A,2G,4 | 
[V:1] G2G2A2_B2c4 | 
[V:2] z4z2g2f2a2- | 
[V:3] c2_e2d2d2c4 | 
[V:4] z4z2G,2A,2F,2- | 
[V:1] z4z2c2_B2d2- | 
[V:2] agg4^f2g4 | 
[V:3] z4c4d2_B2- | 
[V:4] F,G,_B,2A,4G,4 | 
[V:1] dcc4B2c4 | 
[V:2] f2e2d4c2e2- | 
[V:3] B2c2G4z4 | 
[V:4] z4z2G,2A,4 | 
[V:1] _B2A2G4F2A2- | 
[V:2] edd4^c2d4 | 
[V:3] z4G4A2F2 | 
[V:4] G,2F,2E,4D,4 | 
[V:1] AGG4^F2G4 | 
[V:2] z4z2d2c2e2- | 
[V:3] G2_B2A4G2_B2- | 
[V:4] z4D,4E,2G,2- | 
[V:1] z4z2G2F2A2- | 
[V:2] edd4^c2d4- | 
[V:3] BAA4G2A2F2- | 
[V:4] G,F,D,2E,4D,4- | 
[V:1] AGG4^F2G4 ||  
[V:2] d12 ||  
[V:3] FG_B2A4G4 ||  
[V:4] D,8G,4 ||  
[V:1]  [K:C] [K:clef=treble][M:2/1]z8 | 
[V:2]  [K:C] [K:clef=treble-8][M:2/1]d8 | 
[V:3]  [K:C] [K:clef=treble-8][M:2/1]G8 | 
[V:4]  [K:C] [K:clef=bass][M:2/1]G,8 | 
[V:1] G8 | 
[V:2] d4d4 | 
[V:3] B4B4 | 
[V:4] G,4G,4 | 
[V:1] G4G4 | 
[V:2] e8 | 
[V:3] c8- | 
[V:4] C,8 | 
[V:1] A8 | 
[V:2] c8 | 
[V:3] c4A4 | 
[V:4] F,8 | 
[V:1] F8 | 
[V:2] d8 | 
[V:3] A8 | 
[V:4] D,8 | 
[V:1] G8 | 
[V:2] z4d4 | 
[V:3] G8 | 
[V:4] z4G,4 | 
[V:1] z4G4 | 
[V:2] d4B4 | 
[V:3] z4G4 | 
[V:4] G,4G,4 | 
[V:1] G4E4 | 
[V:2] c8 | 
[V:3] G4G4 | 
[V:4] C,8 | 
[V:1] F8 | 
[V:2] d8 | 
[V:3] A8 | 
[V:4] F,8 | 
[V:1] G8 | 
[V:2] e8 | 
[V:3] B8 | 
[V:4] E,8 | 
[V:1] A8 | 
[V:2] z8 | 
[V:3] A8 | 
[V:4] z4A,4 | 
[V:1] z8 | 
[V:2] e8 | 
[V:3] z4c4- | 
[V:4] A,4A,4 | 
[V:1] A8 | 
[V:2] f8 | 
[V:3] c4d4- | 
[V:4] F,8 | 
[V:1] _B8 | 
[V:2] d8 | 
[V:3] d4B4- | 
[V:4] G,8 | 
[V:1] G8 | 
[V:2] e8 | 
[V:3] B4c4- | 
[V:4] E,8 | 
[V:1] A8 | 
[V:2] c8 | 
[V:3] c4A4- | 
[V:4] F,6E,D, | 
[V:1] F8 | 
[V:2] d8 | 
[V:3] A4d4- | 
[V:4] D,8 | 
[V:1] G8 | 
[V:2] d8 | 
[V:3] d4B4 | 
[V:4] G,8 | 
[V:1] G8 | 
[V:2] z8 | 
[V:3] e6d2 | 
[V:4] E,8 | 
[V:1] z8 | 
[V:2] e8 | 
[V:3] c2B2A4 | 
[V:4] A,6G,2 | 
[V:1] A8 | 
[V:2] f8 | 
[V:3] z4d4 | 
[V:4] F,2E,2D,4 | 
[V:1] _B8 | 
[V:2] d4e4- | 
[V:3] _B4G4- | 
[V:4] z2G,3F,G,2 | 
[V:1] G4A4- | 
[V:2] e2d2d4- | 
[V:3] G2_B2A2F2 | 
[V:4] E,2G,2F,2D,2 | 
[V:1] A2G2G4- | 
[V:2] d4^c4 | 
[V:3] A2_B2G3A | 
[V:4] F,3G,E,4 | 
[V:1] G4^F4 | 
[V:2] d8- | 
[V:3] _B2c2A4 | 
[V:4] D,8 | 
[V:1] G8 ||  
[V:2] d8 ||  
[V:3] G8 ||  
[V:4] G,8 ||  
[V:1]  [K:C] [K:clef=treble][M:2/1]z8 | 
[V:2]  [K:C] [K:clef=treble-8][M:2/1]d4e4 | 
[V:3]  [K:C] [K:clef=treble-8][M:2/1]z8 | 
[V:4]  [K:C] [K:clef=bass][M:2/1]z8 | 
[V:1] z8 | 
[V:2] d2B2c2c2 | 
[V:3] z8 | 
[V:4] G,4A,4 | 
[V:1] G4A4 | 
[V:2] B2e3ddc | 
[V:3] z8 | 
[V:4] G,2E,2F,2F,2 | 
[V:1] G2E2F2F2 | 
[V:2] e4z4 | 
[V:3] c4d4 | 
[V:4] E,2E,2D,4 | 
[V:1] E2A3^GG^F | 
[V:2] z8 | 
[V:3] c2A2B2B2 | 
[V:4] A,4z4 | 
[V:1] A4z4 | 
[V:2] e2f2g2a2- | 
[V:3] A2A2G2F2- | 
[V:4] z2A,2B,2C2 | 
[V:1] z8 | 
[V:2] a2f2e4 | 
[V:3] F2EDA4 | 
[V:4] A,2B,2C4 | 
[V:1] A2B2c2d2- | 
[V:2] d4z4 | 
[V:3] z2d2e2f2 | 
[V:4] D4z4 | 
[V:1] d2B2A4 | 
[V:2] z8 | 
[V:3] d2e2f4 | 
[V:4] z4D,4 | 
[V:1] G4z4 | 
[V:2] z2e4e2 | 
[V:3] g4z4 | 
[V:4] E,4E,4 | 
[V:1] z8 | 
[V:2] f3ed2^c2 | 
[V:3] z4z2G2 | 
[V:4] A,3G,F,2E,2 | 
[V:1] z2A4A2 | 
[V:2] d8 | 
[V:3] A4A4 | 
[V:4] D,8 | 
[V:1] _B3AG2^F2 | 
[V:2] z8 | 
[V:3] d3cB2A2 | 
[V:4] z8 | 
[V:1] G8 | 
[V:2] z4d4 | 
[V:3] G4z2G2 | 
[V:4] z4G,4 | 
[V:1] z8 | 
[V:2] d4e4 | 
[V:3] B2B2c4 | 
[V:4] G,4E,4 | 
[V:1] z4G4 | 
[V:2] d4B2c2 | 
[V:3] A4z2e2 | 
[V:4] F,4G,2C,2 | 
[V:1] G4A4 | 
[V:2] B2e3ddc | 
[V:3] d2c2A3B | 
[V:4] G,2E,2F,4 | 
[V:1] G4E2F2 | 
[V:2] e4z4 | 
[V:3] cBe3dc2- | 
[V:4] E,4A,4 | 
[V:1] E2A3^GG^F | 
[V:2] z8 | 
[V:3] c2A2B4 | 
[V:4] z8 | 
[V:1] A4z4 | 
[V:2] c2d2e2f2- | 
[V:3] A4z4 | 
[V:4] A,2F,2G,2A,2- | 
[V:1] z8 | 
[V:2] fed3^c^cB | 
[V:3] z4G4 | 
[V:4] A,G,F,2E,4 | 
[V:1] F2G2A2_B2- | 
[V:2] d4z4 | 
[V:3] A2B2c2d2 | 
[V:4] D,2G,2F,2D,2 | 
[V:1] BAG3^FFE | 
[V:2] B2c2d4 | 
[V:3] G4A4 | 
[V:4] E,4D,4 | 
[V:1] G4z4 | 
[V:2] B2c2d2e2- | 
[V:3] G4z4 | 
[V:4] G,2E,2F,2G,2 | 
[V:1] E2F2G4 | 
[V:2] eddce4 | 
[V:3] z4z2c2- | 
[V:4] A,2F,2E,4 | 
[V:1] E2F2G2A2- | 
[V:2] z8 | 
[V:3] c2A2B2c2 | 
[V:4] z8 | 
[V:1] A^GG^FA4 | 
[V:2] z4z2e2 | 
[V:3] d2B2A4- | 
[V:4] z4z2A,2 | 
[V:1] z8 | 
[V:2] e2e2f3e | 
[V:3] A4z4 | 
[V:4] A,2A,2A,3G, | 
[V:1] z4z2A2 | 
[V:2] d2^c2d4 | 
[V:3] z4z2d2 | 
[V:4] F,2E,2D,4- | 
[V:1] A2A2_B3A | 
[V:2] z8 | 
[V:3] d2d2d3c | 
[V:4] D,4z4 | 
[V:1] G2^F2G4 | 
[V:2] z2d2B2c2 | 
[V:3] B2A2G4 | 
[V:4] z2D,2E,3E, | 
[V:1] z8 | 
[V:2] d2A2B2c2 | 
[V:3] z8 | 
[V:4] D,2F,2E,2E,2 | 
[V:1] z2G2E2F2 | 
[V:2] d2B2c2d2 | 
[V:3] z2G2G2A2 | 
[V:4] D,2E,2E,2D,2 | 
[V:1] G2D2E2F2 | 
[V:2] B2B2c2d2 | 
[V:3] G2B2G2A2 | 
[V:4] G,2G,2C,2F,2 | 
[V:1] G2E2F2G2 | 
[V:2] e4z4 | 
[V:3] G2c2A2B2 | 
[V:4] E,4z4 | 
[V:1] E2E2F2G2 | 
[V:2] z8 | 
[V:3] A2c2A2B2 | 
[V:4] z8 | 
[V:1] A4z4 | 
[V:2] z2e2e2d2 | 
[V:3] A4z4 | 
[V:4] z8 | 
[V:1] z8 | 
[V:2] c4B4 | 
[V:3] z8 | 
[V:4] z2A,2A,2G,2 | 
[V:1] z2A2A2G2 | 
[V:2] A4z4 | 
[V:3] z2A2c2B2- | 
[V:4] F,4E,4 | 
[V:1] F4E4 | 
[V:2] z4A4 | 
[V:3] BAd4^c2 | 
[V:4] D,4z4 | 
[V:1] D4z4 | 
[V:2] B4c4 | 
[V:3] d4z4 | 
[V:4] D,4E,4 | 
[V:1] z4D4 | 
[V:2] d4B4 | 
[V:3] z8 | 
[V:4] F,4G,4 | 
[V:1] E4F4 | 
[V:2] c4d4 | 
[V:3] G4A4 | 
[V:4] C,4F,4 | 
[V:1] G4E4 | 
[V:2] e8 | 
[V:3] B4c4 | 
[V:4] E,4A,4 | 
[V:1] F4G4 | 
[V:2] d8- | 
[V:3] A4B4 | 
[V:4] D,4G,4 | 
[V:1] A8 | 
[V:2] d8- | 
[V:3] A2d3cA2 | 
[V:4] D,8 | 
[V:1] G8 ||  
[V:2] d8 ||  
[V:3] B8 ||  
[V:4] G,8 ||  
[V:1]  [K:C] [K:clef=treble][M:2/1]z8 | 
[V:2]  [K:C] [K:clef=treble-8][M:2/1]d4d4 | 
[V:3]  [K:C] [K:clef=treble-8][M:2/1]z8 | 
[V:4]  [K:C] [K:clef=bass][M:2/1]z4G,4 | 
[V:1] z8 | 
[V:2] B2c2d4 | 
[V:3] z8 | 
[V:4] G,2E,2F,2G,2- | 
[V:1] G4G4 | 
[V:2] z4z2e2- | 
[V:3] z4c4 | 
[V:4] G,F,E,D,C,4 | 
[V:1] E2F2G4 | 
[V:2] e2d2e2c2 | 
[V:3] c2A2B2c2 | 
[V:4] z2F,2E,4 | 
[V:1] z4z2A2- | 
[V:2] B4A4 | 
[V:3] d4c2A2 | 
[V:4] D,4F,4 | 
[V:1] A2G2A2F2 | 
[V:2] z8 | 
[V:3] B4A2d2- | 
[V:4] E,4F,2D,2 | 
[V:1] E4D4 | 
[V:2] z2e2f3f | 
[V:3] d2^c2d4 | 
[V:4] A,4D,4 | 
[V:1] z8 | 
[V:2] e2d4^c2 | 
[V:3] z4G4 | 
[V:4] G,3F,E,4 | 
[V:1] z2A2_B3B | 
[V:2] d4z4 | 
[V:3] A4G2d2- | 
[V:4] D,4z2G,2 | 
[V:1] A2G4^F2 | 
[V:2] z4z2d2 | 
[V:3] dcB2A4 | 
[V:4] F,2G,2D,4 | 
[V:1] G4z4 | 
[V:2] B2c2d2B2 | 
[V:3] G4z4 | 
[V:4] z2E,2F,2G,2 | 
[V:1] z4z2G2 | 
[V:2] c2d2B2e2- | 
[V:3] z4z2B2 | 
[V:4] E,2F,2G,2G,2 | 
[V:1] E2F2G2E2 | 
[V:2] edd3B^c2 | 
[V:3] c2d2e4 | 
[V:4] A,2F,2E,4 | 
[V:1] F2G2E2A2- | 
[V:2] d4z2A2 | 
[V:3] z2B2c2d2 | 
[V:4] D,2G,2C,2F,2 | 
[V:1] AGG3E^F2 | 
[V:2] B2c2d2A2 | 
[V:3] B2G2A4 | 
[V:4] E,4z2D,2 | 
[V:1] G4z2D2 | 
[V:2] B2c2d4 | 
[V:3] G4z2B2 | 
[V:4] G,2E,2D,4 | 
[V:1] E2F2G2D2 | 
[V:2] z4z2B2 | 
[V:3] c2A2G2B2 | 
[V:4] z4z2G,2 | 
[V:1] E2F2G4 | 
[V:2] c2d2B2e2- | 
[V:3] G2A2G4 | 
[V:4] E,2D,2E,4 | 
[V:1] z4z2E2 | 
[V:2] ecd2e4 | 
[V:3] z2A2B2c2 | 
[V:4] F,4E,4 | 
[V:1] F2G2E2A2- | 
[V:2] z8 | 
[V:3] A2B2c2A2 | 
[V:4] z8 | 
[V:1] A^F^G2A4 | 
[V:2] z4z2c2 | 
[V:3] B4A4 | 
[V:4] z4z2A,2 | 
[V:1] z8 | 
[V:2] d2e4d2 | 
[V:3] z8 | 
[V:4] B,2C4B,2 | 
[V:1] z4z2F2 | 
[V:2] c2B2A4 | 
[V:3] z4z2d2 | 
[V:4] A,2G,2(3A,2D,2F,2 | 
[V:1] G2A4G2 | 
[V:2] z8 | 
[V:3] e2f4e2 | 
[V:4] E,2D,2z4 | 
[V:1] F2E2D4 | 
[V:2] z4z2d2- | 
[V:3] d2^c2d4 | 
[V:4] z8 | 
[V:1] z8 | 
[V:2] d2d2e2f2 | 
[V:3] z8 | 
[V:4] G,4G,2A,2 | 
[V:1] z4z2G2- | 
[V:2] g3fede2- | 
[V:3] z8 | 
[V:4] B,2C3B,G,2 | 
[V:1] G2G2A2B2 | 
[V:2] edcBA2d2- | 
[V:3] c4c2d2 | 
[V:4] z2C,2F,2D,2 | 
[V:1] c3BAGA2- | 
[V:2] d2^c2d4 | 
[V:3] e2f3edc | 
[V:4] A,4D,4- | 
[V:1] AGFED2G2- | 
[V:2] z8 | 
[V:3] d3cBAG2 | 
[V:4] D,4z4 | 
[V:1] G2^F2G4 | 
[V:2] z4z2d2 | 
[V:3] A4G4 | 
[V:4] z8 | 
[V:1] z8 | 
[V:2] e2c2d2e2- | 
[V:3] z8 | 
[V:4] G,2A,2F,2G,2 | 
[V:1] z4z2G2 | 
[V:2] e2c2d2e2 | 
[V:3] z8 | 
[V:4] A,2A,2F,2E,2 | 
[V:1] A2F2G2A2- | 
[V:2] A2d2c2A2 | 
[V:3] A2B2G2c2 | 
[V:4] F,2D,2E,2F,2 | 
[V:1] A2F2G2A2 | 
[V:2] c2d2e2A2 | 
[V:3] A2A2G2F2 | 
[V:4] F,2F,2E,2D,2 | 
[V:1] D2G2F2D2 | 
[V:2] B2c2d4 | 
[V:3] G2G2A2B2 | 
[V:4] G,2E,2D,4 | 
[V:1] F2G2A2D2 | 
[V:2] z8 | 
[V:3] B2B2A2B2 | 
[V:4] z8 | 
[V:1] E2F2G4 | 
[V:2] z4B2c2 | 
[V:3] G2A2G4 | 
[V:4] z4z2E,2 | 
[V:1] z8 | 
[V:2] d4d4 | 
[V:3] z8 | 
[V:4] F,2G,4D,2 | 
[V:1] z4E2F2 | 
[V:2] d2e2c2d2 | 
[V:3] z4z2A2 | 
[V:4] G,2G,2A,2F,2 | 
[V:1] G4G4 | 
[V:2] e4z2e2 | 
[V:3] B2c4G2 | 
[V:4] E,4z2E,2 | 
[V:1] G2A2F2G2 | 
[V:2] e2c2d2B2 | 
[V:3] c2A2B2G2 | 
[V:4] E,2F,2D,2E,2 | 
[V:1] A4z2A2 | 
[V:2] A2A2B2c2 | 
[V:3] c4z2A2 | 
[V:4] F,2F,2G,2A,2 | 
[V:1] A2F2G2E2 | 
[V:2] d4z4 | 
[V:3] A2d2B2c2 | 
[V:4] D,4z4 | 
[V:1] D2D2E2F2 | 
[V:2] z8 | 
[V:3] d2B2c2A2 | 
[V:4] z8 | 
[V:1] G4z4 | 
[V:2] d4e4 | 
[V:3] G8 | 
[V:4] G,4E,4 | 
[V:1] z8 | 
[V:2] d4B4 | 
[V:3] z4B4 | 
[V:4] F,4G,4 | 
[V:1] G4A4 | 
[V:2] z2e2d2d2 | 
[V:3] c4A4 | 
[V:4] E,4F,2F,2 | 
[V:1] G4E4 | 
[V:2] e2g3fe2- | 
[V:3] B4c3d | 
[V:4] E,2E,2C,4 | 
[V:1] z2A2G2G2 | 
[V:2] e2dcB4 | 
[V:3] e2f2e4 | 
[V:4] z2D,2E,4 | 
[V:1] A2c3BA2- | 
[V:2] A2a3gf2- | 
[V:3] c4z4 | 
[V:4] F,G,A,B,C2D2 | 
[V:1] A2GFE4 | 
[V:2] f2ed^cde^c | 
[V:3] z4z2A2- | 
[V:4] D,4A,4 | 
[V:1] D2d3cB2- | 
[V:2] d8 | 
[V:3] A2B2A2d2- | 
[V:4] D,8- | 
[V:1] B2AG^FGAF | 
[V:2] z4d4 | 
[V:3] d2cBA4 | 
[V:4] D,8 | 
[V:1] G8 | 
[V:2] d4B4 | 
[V:3] G4z4 | 
[V:4] z2G,2G,4 | 
[V:1] z4G4 | 
[V:2] e6dc | 
[V:3] g6fe | 
[V:4] E,6F,2 | 
[V:1] G4E4 | 
[V:2] B4c4 | 
[V:3] d4c4 | 
[V:4] G,4A,4 | 
[V:1] A6GF | 
[V:2] d2e2f2g2- | 
[V:3] z2c2d2e2 | 
[V:4] z2A,2F,2E,2 | 
[V:1] E4F4 | 
[V:2] gfe4d2 | 
[V:3] B2c2A4 | 
[V:4] G,2A,2F,4 | 
[V:1] G2A2B2c2- | 
[V:2] e8 | 
[V:3] z2c2B2A2 | 
[V:4] E,2A,2G,2A,2- | 
[V:1] cBA4^G2 | 
[V:2] z8 | 
[V:3] c2d2B4 | 
[V:4] A,2D,2E,4 | 
[V:1] A12 | 
[V:2] [M:3/1]e8c4 | 
[V:3] [M:3/1]A8z4 | 
[V:4] [M:3/1]z4A,8 | 
[V:1] z12 | 
[V:2] d4e8 | 
[V:3] A4B4c4 | 
[V:4] F,4G,4A,4- | 
[V:1] [M:3/1]A8F4 | 
[V:2] c4d6c2 | 
[V:3] A8B4 | 
[V:4] A,4D,8 | 
[V:1] G4A8 | 
[V:2] B4A4c4 | 
[V:3] G4c6A2 | 
[V:4] E,4F,8 | 
[V:1] F4G6F2 | 
[V:2] d4e6f2 | 
[V:3] B2A2c4G4 | 
[V:4] D,4C,4z4 | 
[V:1] E4D4F4 | 
[V:2] g4f6e2 | 
[V:3] c4A4d4 | 
[V:4] C,4D,8 | 
[V:1] G4A6B2 | 
[V:2] e6c2d4 | 
[V:3] B4A4f4 | 
[V:4] E,4F,4D,4 | 
[V:1] c4B6A2 | 
[V:2] e4g4f4 | 
[V:3] e8c4- | 
[V:4] A,4G,4A,4 | 
[V:1] A6^F2^G4 | 
[V:2] e6d2d2c2 | 
[V:3] c4d4B4 | 
[V:4] C4B,8 | 
[V:1] A4c4B4 | 
[V:2] e12- | 
[V:3] c4e6d2 | 
[V:4] A,8G,4 | 
[V:1] A6^G2G2^F2 | 
[V:2] e12- | 
[V:3] c4B8 | 
[V:4] A,4E,8 | 
[V:1] A12 |]  
[V:2] e12 |]  
[V:3] A12 |]  
[V:4] A,,12 |]  



